src/lib/packages/icons/src/assets/filled/ethereum-square.svg

<svg xmlns="http://www.w3.org/2000/svg" width="24" height="24" fill="none"><path fill="currentColor" d="M17.625 3H6.375C4.125 3 3 4.125 3 6.375v11.25C3 19.875 4.125 21 6.375 21h11.25C19.875 21 21 19.875 21 17.625V6.375C21 4.125 19.875 3 17.625 3Zm-2.689 11.204L12.45 17.77c-.22.31-.68.31-.9 0l-2.486-3.566a.2.2 0 0 1 .227-.304l2.469.82c.08.03.16.04.24.04.08 0 .16-.01.24-.04l2.469-.82a.2.2 0 0 1 .227.304Zm.354-2.089L12 13.22l-3.289-1.105a.3.3 0 0 1-.167-.429l2.977-5.405c.21-.37.75-.37.96 0l2.977 5.405a.302.302 0 0 1-.168.429Z"/></svg>

<svg width="24" height="24" viewBox="0 0 24 24" fill="none" xmlns="http://www.w3.org/2000/svg">
<path d="M17.625 3H6.375C4.125 3 3 4.125 3 6.375V17.625C3 19.875 4.125 21 6.375 21H17.625C19.875 21 21 19.875 21 17.625V6.375C21 4.125 19.875 3 17.625 3ZM14.936 14.204L12.45 17.77C12.23 18.08 11.77 18.08 11.55 17.77L9.06403 14.204C8.95403 14.046 9.10902 13.839 9.29102 13.9L11.76 14.72C11.84 14.75 11.92 14.76 12 14.76C12.08 14.76 12.16 14.75 12.24 14.72L14.709 13.9C14.891 13.839 15.046 14.046 14.936 14.204ZM15.29 12.115L12 13.22L8.711 12.115C8.534 12.055 8.45401 11.85 8.54401 11.686L11.521 6.28101C11.731 5.91101 12.271 5.91101 12.481 6.28101L15.458 11.686C15.547 11.849 15.467 12.055 15.29 12.115Z" fill="currentColor"/>
</svg>
